X: 10239
T: Do You Want Any More?
R: jig
M: 6/8
K: Dmixolydian
|:E|FDF A2 B|cAd cAG|Ad^c d2 e|f>ed cAG|
FD/E/F AFB|c2 d cA^G|Ad^c AGE|EDD D2:|
|:g|fdd fdc|A2 d ^cdg|fdd fdc|AB^c de/f/g|
aba g2 e|fdd cA^G|A2 d cGE|EDD D2:|

